src/icons/android-folder.svg

<svg xmlns="http://www.w3.org/2000/svg" width="512" height="512" viewBox="0 0 512 512">
    <path d="M225.5 135.2h-99.1c-16.7 0-30.4 13.7-30.4 30.5v167.6c0 16.8 13.7 30.5 30.5 30.5h259c16.8 0 30.5-13.7 30.5-30.5V200c0-16.8-13.7-30.5-30.5-30.5H256l-30.5-34.3z"/>
</svg>

<?xml version="1.0" encoding="UTF-8"?>
<svg width="512px" height="512px" viewBox="0 0 512 512" version="1.1" xmlns="http://www.w3.org/2000/svg" xmlns:xlink="http://www.w3.org/1999/xlink">
    <!-- Generator: Sketch 62 (91390) - https://sketch.com -->
    <title>android-folder</title>
    <desc>Created with Sketch.</desc>
    <g id="android-folder" stroke="none" stroke-width="1" fill="none" fill-rule="evenodd">
        <path d="M225.5,135.2 L126.4,135.2 C109.7,135.2 96,148.9 96,165.7 L96,333.3 C96,350.1 109.7,363.8 126.5,363.8 L385.5,363.8 C402.3,363.8 416,350.1 416,333.3 L416,200 C416,183.2 402.3,169.5 385.5,169.5 L256,169.5 L225.5,135.2 Z" id="Path" fill="#000000" fill-rule="nonzero"></path>
    </g>
</svg>
